src/assets/icons/weeks,fancy,34.svg

<svg width="48" height="48" viewBox="0 0 48 48" fill="none" xmlns="http://www.w3.org/2000/svg">
<rect opacity="0.2" x="4" y="6" width="40" height="40" rx="4" fill="black"/>
<path d="M14.4608 41.2784C19.0346 41.2784 22.3059 38.7628 22.296 35.2827C22.3059 32.7472 20.6951 30.9375 17.7022 30.5597V30.4006C19.9792 29.9929 21.5502 28.3821 21.5403 26.0952C21.5502 22.8835 18.7363 20.358 14.5204 20.358C10.3443 20.358 7.20224 22.804 7.14258 26.3239H11.269C11.3187 24.7727 12.7406 23.7685 14.5005 23.7685C16.2406 23.7685 17.4039 24.8224 17.394 26.3537C17.4039 27.9545 16.0417 29.0384 14.0829 29.0384H12.1838V32.2003H14.0829C16.3897 32.2003 17.8315 33.3537 17.8216 34.9943C17.8315 36.6151 16.4395 37.7287 14.4707 37.7287C12.5716 37.7287 11.1497 36.7344 11.0701 35.2429H6.73491C6.80451 38.8026 9.98633 41.2784 14.4608 41.2784ZM25.0826 37.4205H34.8567V41H38.9732V37.4205H41.4988V33.9702H38.9732V20.6364H33.584L25.0826 34.0298V37.4205ZM34.9363 33.9702H29.4178V33.8111L34.7772 25.3295H34.9363V33.9702Z" fill="black"/>
<g opacity="0.4">
<path d="M10 4C10 2.89543 10.8954 2 12 2C13.1046 2 14 2.89543 14 4V8C14 9.10457 13.1046 10 12 10C10.8954 10 10 9.10457 10 8V4Z" fill="black"/>
<path d="M34 4C34 2.89543 34.8954 2 36 2C37.1046 2 38 2.89543 38 4V8C38 9.10457 37.1046 10 36 10C34.8954 10 34 9.10457 34 8V4Z" fill="black"/>
</g>
<path fill-rule="evenodd" clip-rule="evenodd" d="M10 6.00869C7.52043 6.04456 6.11466 6.22849 5.17157 7.17157C4 8.34315 4 10.2288 4 14V16H44V14C44 10.2288 44 8.34315 42.8284 7.17157C41.8853 6.22849 40.4796 6.04456 38 6.00869V8C38 9.10457 37.1046 10 36 10C34.8954 10 34 9.10457 34 8V6H14V8C14 9.10457 13.1046 10 12 10C10.8954 10 10 9.10457 10 8V6.00869Z" fill="black"/>
</svg>

<svg xmlns="http://www.w3.org/2000/svg" width="48" height="48" fill="none" viewBox="0 0 48 48">
  <rect width="40" height="40" x="4" y="6" fill="#000" opacity=".2" rx="4"/>
  <path fill="#000" d="M14.46 41.278c4.575 0 7.846-2.515 7.836-5.995.01-2.536-1.6-4.346-4.594-4.723v-.16c2.277-.407 3.848-2.018 3.838-4.305.01-3.211-2.804-5.737-7.02-5.737-4.176 0-7.318 2.446-7.377 5.966h4.126c.05-1.551 1.472-2.556 3.232-2.556 1.74 0 2.903 1.054 2.893 2.586.01 1.6-1.352 2.684-3.311 2.684h-1.9V32.2h1.9c2.307 0 3.748 1.154 3.739 2.794.01 1.621-1.383 2.735-3.351 2.735-1.9 0-3.321-.995-3.4-2.486H6.734c.07 3.56 3.251 6.035 7.726 6.035zm10.623-3.858h9.774V41h4.116v-3.58H41.5v-3.45h-2.526V20.636h-5.389L25.083 34.03v3.39zm9.853-3.45h-5.518v-.159l5.36-8.482h.158v8.641z"/>
  <g opacity=".4">
    <path fill="#000" d="M10 4a2 2 0 114 0v4a2 2 0 11-4 0V4zM34 4a2 2 0 114 0v4a2 2 0 11-4 0V4z"/>
  </g>
  <path fill="#000" fill-rule="evenodd" d="M10 6.009c-2.48.036-3.885.22-4.828 1.163C4 8.343 4 10.229 4 14v2h40v-2c0-3.771 0-5.657-1.172-6.828-.943-.944-2.348-1.127-4.828-1.163V8a2 2 0 11-4 0V6H14v2a2 2 0 11-4 0V6.009z" clip-rule="evenodd"/>
</svg>
